X: 527
T: You Stole My Heart Away   #3
R: jig, air
%S: s:3 b:13(5+4+4)
B: O'Neill's 1850 #527
O: F.O'Neill
Z: Dave Wooldridge
N: Compacted via repeats and multiple endings [JC]
Q: "Cheerfully"
M: 6/8
L: 1/8
K: Gm
"^A"[|] (B/A/) | G2g gfe | (dcB AG^F) | G2g (g/a/b).a |1 (g2^f g2) :|2 g3 g2 |]
"^B"[| A | B>cB (d<f)B | A>GA FGA | B>AB G2d | gab d2 ||
"^C"|| a | bag fed | (cdB AG^F) | G2g (g/a/b).a | g3 g2 |]
